apps/www/public/images/logos/frameworks/reactiveX.svg

<svg width="62" height="62" viewBox="0 0 62 62" fill="none" xmlns="http://www.w3.org/2000/svg">
<path fill-rule="evenodd" clip-rule="evenodd" d="M29.3228 12.4486C29.3244 12.4447 29.3261 12.4408 29.3277 12.4369C29.3277 12.4369 28.7975 11.9228 28.4601 11.6979C26.6287 10.4769 23.8976 10.0752 22.2429 11.7943C21.9556 12.0909 21.695 12.4035 21.4365 12.7137C21.2469 12.9412 21.0584 13.1673 20.8613 13.3848C20.3312 13.9632 19.6886 14.4452 18.9496 14.7183C18.5352 14.8737 18.1209 14.9088 17.7022 14.9443C17.4716 14.9639 17.2397 14.9836 17.0057 15.0235C16.331 15.136 15.6402 15.377 15.094 15.8108C14.4995 16.2927 14.2586 16.9354 14.1943 17.6744C14.1542 18.0354 14.1454 18.4028 14.1366 18.7685C14.1313 18.9887 14.1261 19.2083 14.114 19.4256C14.0337 21.1286 13.4874 21.6105 12.2665 22.5584C11.7524 22.944 11.3187 23.4581 10.9973 24.0044C10.388 25.081 10.7802 26.1833 11.1715 27.2828C11.3992 27.9225 11.6265 28.5613 11.656 29.1936C11.6721 29.5471 11.64 29.9005 11.5114 30.2379C11.4215 30.4963 11.2688 30.6919 11.1136 30.8906C11.0469 30.9759 10.9798 31.0619 10.917 31.1537C10.6279 31.5553 10.4351 32.0373 10.5154 32.5353C10.5957 33.0334 10.8528 33.4993 11.0937 33.9331C11.5596 34.7042 12.138 35.395 12.7484 36.0538C12.7742 36.0409 12.7999 36.0692 12.8256 36.0974L12.8266 36.0985C13.3984 37.891 14.2536 39.6166 15.3507 41.2589C19.5276 47.4925 26.3071 49.6453 26.3071 49.6453C36.3478 53.0513 43.2076 48.0387 43.2076 48.0387C49.5212 43.701 50.7903 38.6884 50.7903 38.6884C45.6977 42.6567 43.4968 42.2711 43.4968 42.2711C47.1917 40.6645 48.7661 37.8851 48.7661 37.8851C52.2201 33.1778 51.0474 28.2135 51.0474 28.2135C48.8465 33.0011 46.8383 34.3185 46.8383 34.3185C52.2523 26.0767 46.8704 21.0963 46.8704 21.0963C49.0714 25.7875 46.1475 31.507 46.1475 31.507C43.6896 36.6802 40.2034 38.5277 40.2034 38.5277C44.0912 39.2507 46.9508 36.632 46.9508 36.632C41.3762 42.6567 35.3357 42.3675 35.3357 42.3675C37.874 45.2111 41.6814 44.9702 41.6814 44.9702C36.7012 46.143 32.0263 44.4882 28.1867 41.2911C27.4638 40.6966 26.773 40.054 26.1304 39.3632C26.1304 39.3632 25.552 38.7527 25.4396 38.592L25.4235 38.5759C25.3432 41.5481 28.4438 44.3115 28.4438 44.3115C24.556 42.7049 22.7728 39.2186 22.7728 39.2186C22.7728 39.2186 20.1542 34.7523 22.0498 29.6594C23.9455 24.5665 29.6808 23.474 29.6808 23.474C34.42 25.7714 38.4363 26.4944 38.4363 26.4944C46.9026 27.9082 46.4206 23.7632 46.4206 23.7632C46.5009 20.1966 41.1191 16.405 41.1191 16.405C36.7533 13.1726 32.5772 12.367 29.3228 12.4486ZM35.657 18.831C36.1389 18.831 36.5245 19.2166 36.5245 19.6985C36.5245 20.1805 36.1389 20.5661 35.657 20.5661C35.175 20.5661 34.7895 20.1805 34.7895 19.6985C34.7895 19.2166 35.175 18.831 35.657 18.831ZM30.163 17.2887L24.6848 15.5857C24.6787 15.5857 24.668 15.5828 24.6527 15.5787C24.5871 15.561 24.4372 15.5206 24.2028 15.5857C24.2028 15.5857 20.9737 16.405 21.536 18.1723C21.536 18.1723 21.8734 19.2808 22.7891 20.3572L28.8135 20.068L30.163 17.2887Z" fill="#7E7E7E"/>
</svg>

<svg xmlns="http://www.w3.org/2000/svg" width="62" height="62" fill="none" viewBox="0 0 62 62"><path fill="#7e7e7e" fill-rule="evenodd" d="m29.323 12.449.005-.012s-.53-.514-.868-.74c-1.831-1.22-4.562-1.622-6.217.097-.287.297-.548.61-.806.92-.19.227-.379.453-.576.67-.53.58-1.172 1.061-1.911 1.334-.415.156-.83.19-1.248.226-.23.02-.462.04-.696.08-.675.112-1.366.353-1.912.787-.594.482-.835 1.124-.9 1.863-.04.361-.049.729-.057 1.095-.006.22-.01.44-.023.657-.08 1.703-.627 2.185-1.848 3.132-.514.386-.947.9-1.269 1.446-.609 1.077-.217 2.18.175 3.279.227.64.454 1.278.484 1.91.016.354-.016.707-.145 1.045-.09.258-.242.454-.397.653a5 5 0 0 0-.197.263c-.29.401-.482.883-.402 1.381s.338.964.579 1.398c.466.771 1.044 1.462 1.654 2.12.026-.012.052.016.078.044v.002c.572 1.792 1.428 3.518 2.525 5.16 4.177 6.233 10.956 8.386 10.956 8.386 10.04 3.406 16.9-1.606 16.9-1.606 6.314-4.338 7.583-9.35 7.583-9.35-5.092 3.968-7.293 3.582-7.293 3.582 3.695-1.607 5.27-4.386 5.27-4.386 3.453-4.707 2.28-9.671 2.28-9.671-2.2 4.787-4.209 6.105-4.209 6.105 5.414-8.242.032-13.223.032-13.223 2.201 4.692-.722 10.411-.722 10.411-2.458 5.173-5.945 7.02-5.945 7.02 3.888.724 6.748-1.895 6.748-1.895-5.575 6.025-11.615 5.736-11.615 5.736 2.538 2.843 6.345 2.602 6.345 2.602-4.98 1.173-9.655-.482-13.494-3.679a21 21 0 0 1-2.057-1.928s-.578-.61-.69-.771l-.017-.016c-.08 2.972 3.02 5.736 3.02 5.736-3.887-1.607-5.67-5.093-5.67-5.093s-2.619-4.467-.723-9.56c1.895-5.092 7.63-6.185 7.63-6.185 4.74 2.297 8.756 3.02 8.756 3.02 8.467 1.414 7.985-2.73 7.985-2.73.08-3.567-5.302-7.359-5.302-7.359-4.366-3.232-8.542-4.038-11.796-3.956m6.334 6.382c.482 0 .868.386.868.867a.864.864 0 0 1-.868.868.864.864 0 0 1-.867-.867c0-.482.385-.868.867-.868m-5.494-1.542-5.478-1.703q-.01 0-.032-.007a.8.8 0 0 0-.45.007s-3.23.819-2.667 2.586c0 0 .337 1.109 1.253 2.185l6.025-.289z" clip-rule="evenodd"/></svg>
